public/youtube.svg

<svg fill="none" height="32" viewBox="0 0 32 32" width="32" xmlns="http://www.w3.org/2000/svg"><path clip-rule="evenodd" d="m24.1227 6.5963c-3.8443-.2624-12.4064-.26133-16.24535 0-4.1568.28374-4.6464 2.79467-4.67734 9.4037.03094 6.5974.51627 9.119 4.67734 9.4038 3.83995.2613 12.40105.2624 16.24535 0 4.1568-.2838 4.6464-2.7947 4.6773-9.4038-.0309-6.5973-.5163-9.1189-4.6773-9.4037zm-11.3227 13.6704v-8.5333l8.5333 4.2592z" fill="#404b59" fill-rule="evenodd"/></svg>

<svg width="32" height="32" viewBox="0 0 32 32" fill="none" xmlns="http://www.w3.org/2000/svg">
<path fill-rule="evenodd" clip-rule="evenodd" d="M24.1227 6.5963C20.2784 6.3339 11.7163 6.33497 7.87735 6.5963C3.72055 6.88004 3.23095 9.39097 3.20001 16C3.23095 22.5974 3.71628 25.119 7.87735 25.4038C11.7173 25.6651 20.2784 25.6662 24.1227 25.4038C28.2795 25.12 28.7691 22.6091 28.8 16C28.7691 9.4027 28.2837 6.8811 24.1227 6.5963ZM12.8 20.2667V11.7334L21.3333 15.9926L12.8 20.2667V20.2667Z" fill="#404B59"/>
</svg>
